gy/si-glyph-law-hammer.svg

<svg viewBox="0 0 17 17" xmlns="http://www.w3.org/2000/svg" class="si-glyph si-glyph-law-hammer" height="1em" width="1em">
  <path d="M14.44 7.389 9.662 2.61l.57-.569-.917-.919-4.247 4.245.92.918.53-.53 1.955 1.954-8.535 8.535.83.829 8.533-8.534 1.994 1.993-.529.531.918.917 4.254-4.253-.917-.918-.581.58Z" fill="#434343" class="si-glyph-fill" fill-rule="evenodd"/>
</svg>

<svg viewBox="0 0 17 17" version="1.1" xmlns="http://www.w3.org/2000/svg" class="si-glyph si-glyph-law-hammer" height="1em" width="1em">
  <g stroke="none" stroke-width="1" fill="none" fill-rule="evenodd">
    <path d="M14.44,7.389 L9.662,2.61 L10.232,2.041 L9.315,1.122 L5.068,5.367 L5.988,6.285 L6.518,5.755 L8.473,7.709 L-0.062,16.244 L0.768,17.073 L9.301,8.539 L11.295,10.532 L10.766,11.063 L11.684,11.98 L15.938,7.727 L15.021,6.809 L14.44,7.389 Z" fill="#434343" class="si-glyph-fill"/>
  </g>
</svg>
